!!!OTL: 787. Abschied beim Wein.
!!!ARE: Europa, Mitteleuropa, Deutschland, Hessen, Lahn - Tal
!!!SCT: E0787
!!!TXL: @@DE
!!!YEM: Copyright 1995, estate of Helmut Schaffrath.
**kern	**text
*ICvox	*
*M3/8	*
*k[f#]	*
*G:	*
!LO:TX:a:t=Munter.	!
!LO:TX:a:t=Aus dem Lahnthal.	!
{8d	Seid
=1	=1
8g	mun-
8g	-ter
8b/	und
=2	=2
16bL	fröh-
16aJ	.
8a}	-lich,
{16a	al-
16b/	-les
=3	=3
8.cc	was
16ee	nur
16dd	jun-
16cc	-ge
=4	=4
(16b	Bur-
16cc	-ſche
8dd)}	ſein!
{16b	Se-
16b	-tʒet
=5	=5
4b	hier
16eeL	euch
16ddJ	.
=6	=6
16ddL	nie-
16ccJ	.
8cc	-der
8r}	.
=7	=7
{8a	bei
8dd	ein
16ddL	Glas
16ccJ	.
=8	=8
4b;}	Wein!
==	==
!!!AGN: Abschieds -, Wander -, Trink -  Lied
!!!ONB: ESAC (Essen Associative Code) Database: ERK2
!!!AMT: simple triple
!!!AIN: vox
!!!EED: Helmut Schaffrath
!!!EEV: 1.0
!!!GTL: Abschieds- und Wanderlieder
!!!URL-scan: https://rosdok.uni-rostock.de/mcrviewer/recordIdentifier/rosdok_ppn745177662/iview2/phys_0593.iview2?x=175.40593030447008&y=864.0319818584248&scale=0.7029437510502773&rotation=0&layout=singlePageLayout
!!!ENC: Anna Maria Matuszewska
!!!EEV: 2024/12/17
*-	*-
